Numix-GalliumOS/24/categories/applications-cardgames.svg

<?xml version="1.0" encoding="UTF-8" standalone="no"?>
<svg
   xmlns:dc="http://purl.org/dc/elements/1.1/"
   xmlns:cc="http://creativecommons.org/ns#"
   xmlns:rdf="http://www.w3.org/1999/02/22-rdf-syntax-ns#"
   xmlns:svg="http://www.w3.org/2000/svg"
   xmlns="http://www.w3.org/2000/svg"
   xmlns:sodipodi="http://sodipodi.sourceforge.net/DTD/sodipodi-0.dtd"
   xmlns:inkscape="http://www.inkscape.org/namespaces/inkscape"
   width="24"
   height="24"
   viewBox="0 0 24 24"
   id="svg2"
   version="1.1"
   inkscape:version="0.91 r"
   sodipodi:docname="applications-cardgames.svg">
  <metadata
     id="metadata14">
    <rdf:RDF>
      <cc:Work
         rdf:about="">
        <dc:format>image/svg+xml</dc:format>
        <dc:type
           rdf:resource="http://purl.org/dc/dcmitype/StillImage" />
        <dc:title />
      </cc:Work>
    </rdf:RDF>
  </metadata>
  <defs
     id="defs12" />
  <sodipodi:namedview
     pagecolor="#ffffff"
     bordercolor="#666666"
     borderopacity="1"
     objecttolerance="10"
     gridtolerance="10"
     guidetolerance="10"
     inkscape:pageopacity="0"
     inkscape:pageshadow="2"
     inkscape:window-width="1920"
     inkscape:window-height="1056"
     id="namedview10"
     showgrid="true"
     inkscape:zoom="30.341309"
     inkscape:cx="11.492122"
     inkscape:cy="10.945141"
     inkscape:window-x="0"
     inkscape:window-y="24"
     inkscape:window-maximized="1"
     inkscape:current-layer="svg2">
    <inkscape:grid
       type="xygrid"
       id="grid4142" />
  </sodipodi:namedview>
  <path
     style="fill:#f9b081"
     d="M 4.6210938,4.0001682 C 4.2816279,4.0001682 4,4.2810261 4,4.6193088 L 4,17.384934 c 0,0.338281 0.2816278,0.615234 0.6210938,0.615234 l 7.7578122,0 C 12.718373,18.000168 13,17.723215 13,17.384934 L 13,4.6193088 C 13,4.2810261 12.718373,4.0001682 12.378906,4.0001682 l -7.7578122,0 z m 2.4414062,4.5 a 1.4375,1.4375 0 0 1 1.4375,1.4375 1.4375,1.4375 0 0 1 1.4375,-1.4375 1.4375,1.4375 0 0 1 1.4375,1.4375 1.4375,1.4375 0 0 1 -0.421875,1.0175778 L 8.5,13.500168 6.046875,10.955246 l 0,-0.002 A 1.4375,1.4375 0 0 1 5.625,9.9376682 a 1.4375,1.4375 0 0 1 1.4375,-1.4375 z"
     id="path6"
     inkscape:connector-curvature="0" />
  <path
     style="fill:#f9b081"
     inkscape:connector-curvature="0"
     id="path8"
     d="M 13.568382,5.2356729 C 13.238036,5.1448587 12.892145,5.3394656 12.806601,5.6654371 L 9.5227408,17.995152 c -0.089718,0.325944 0.1136307,0.669198 0.4398375,0.75592 l 7.4739237,2.0149 c 0.330351,0.09079 0.672096,-0.107884 0.75764,-0.433856 L 21.482128,8.0024195 C 21.56767,7.6764479 21.368497,7.3332208 21.038166,7.2464853 Z m 2.77278,4.6252363 1.090631,3.6571158 -2.772955,2.621402 -1.09069,-3.656897 z"
     sodipodi:nodetypes="cccccccccccccc" />
</svg>

<svg xmlns="http://www.w3.org/2000/svg" viewBox="0 0 24 24">
 <path d="m 4.621 4 c -0.339 0 -0.621 0.281 -0.621 0.619 l 0 12.766 c 0 0.338 0.282 0.615 0.621 0.615 l 7.758 0 c 0.339 0 0.621 -0.277 0.621 -0.615 l 0 -12.766 c 0 -0.338 -0.282 -0.619 -0.621 -0.619 l -7.758 0 z m 2.441 4.5 a 1.438 1.438 0 0 1 1.438 1.438 1.438 1.438 0 0 1 1.438 -1.438 1.438 1.438 0 0 1 1.438 1.438 1.438 1.438 0 0 1 -0.422 1.018 l -2.453 2.545 -2.453 -2.545 l 0 -0.002 a 1.438 1.438 0 0 1 -0.422 -1.016 a 1.438 1.438 0 0 1 1.438 -1.438 z" style="fill:#f9b081"/>
 <path d="m 13.568 5.236 c -0.33 -0.091 -0.676 0.104 -0.762 0.43 l -3.284 12.33 c -0.09 0.326 0.114 0.669 0.44 0.756 l 7.474 2.01 c 0.33 0.091 0.672 -0.108 0.758 -0.434 l 3.288 -12.33 c 0.086 -0.326 -0.114 -0.669 -0.444 -0.756 m -4.697 2.614 1.091 3.657 -2.773 2.621 -1.091 -3.657 z" style="fill:#f9b081"/>
</svg>
